icons/message-circle-dashed-check.svg

<svg
  xmlns="http://www.w3.org/2000/svg"
  width="24"
  height="24"
  viewBox="0 0 24 24"
  fill="none"
  stroke="currentColor"
  stroke-width="2"
  stroke-linecap="round"
  stroke-linejoin="round"
>
  <path d="M10.1 2.182C11.355 1.9391 12.645 1.9391 13.9 2.182" />
  <path d="M13.9 21.818C12.645 22.0609 11.355 22.0609 10.1 21.818" />
  <path d="M16 9L10.5 14.5L8 12" />
  <path d="M17.609 3.72C18.6705 4.4392 19.5837 5.3559 20.299 6.42" />
  <path d="M2.182 13.9C1.9391 12.645 1.9391 11.355 2.182 10.1" />
  <path d="M20.28 17.61C19.5608 18.6715 18.6441 19.5847 17.58 20.3" />
  <path d="M21.818 10.1C22.0609 11.355 22.0609 12.645 21.818 13.9" />
  <path d="M3.721 6.391C4.4402 5.3295 5.3569 4.4163 6.421 3.701" />
  <path d="M6.163 21.117L3.257 21.967C3.0923 22.0108 2.9191 22.0117 2.7539 21.9697C2.5887 21.9277 2.437 21.8442 2.3131 21.727C2.1893 21.6099 2.0975 21.4631 2.0463 21.3005C1.9952 21.1379 1.9865 20.9649 2.021 20.798L2.986 17.818" />
</svg>

<svg
  xmlns="http://www.w3.org/2000/svg"
  width="24"
  height="24"
  viewBox="0 0 24 24"
  fill="none"
  stroke="currentColor"
  stroke-width="2"
  stroke-linecap="round"
  stroke-linejoin="round"
>
  <path d="M10.1 2.182a10 10 0 0 1 3.8 0" />
  <path d="M13.9 21.818a10 10 0 0 1-3.8 0" />
  <path d="m16 9-5.5 5.5L8 12" />
  <path d="M17.609 3.72a10 10 0 0 1 2.69 2.7" />
  <path d="M2.182 13.9a10 10 0 0 1 0-3.8" />
  <path d="M20.28 17.61a10 10 0 0 1-2.7 2.69" />
  <path d="M21.818 10.1a10 10 0 0 1 0 3.8" />
  <path d="M3.721 6.391a10 10 0 0 1 2.7-2.69" />
  <path d="m6.163 21.117-2.906.85a1 1 0 0 1-1.236-1.169l.965-2.98" />
</svg>
